X: 6
T: The Piper's Despair
R: reel
M: 4/4
L: 1/8
K: Edor
GF |: EFGA BAFA | (3Bcd Ad (3Bcd AF | D2 FD ADFD | (3Bcd Ad (3Bcd AF |
EFGA BAFA | (3Bcd Ad (3Bcd AF | D2 FD AF F2 |1 Beed BGAF :|2 Beed Beed
|: efga begb | egbe gbeg | defg adfa | dfad fadf |
efga begb | egbe gbeg | defg afdf |1 (3gfe fd e2 (3Bcd:|2 (3gfe fd e2


Tune 336	Setting 26433

